X: 1
T: String Quartet in A Major opus 55 no 1 mvt 3
C: Franz Joseph Haydn
%%abc-version 2.0
%%abcx-abcm2ps-target-version 5.9.1 (29 Sep 2008)
%%abc-creator hum2abc beta
%%abcx-conversion-date 2021/02/14 14:38:33
%%abc-copyright Copyright (c) 1994, 2000 Center for Computer Assisted Research in the Humanities
%%abc-edited-by Walter Hewlett
%%abcx-initial-encoding-date 1994/09/16
%%gracespace 0 6 6
%%humdrum-veritas 4063011096
%%humdrum-veritas-data 1187969451
%%linebreak <none>
%%barnumbers 0
L: 1/8
M: 3/4
N: Derived from op55n1-03.krn
Q: "Menuetto"
%%staves [1 2 3 4]
V: 1 clef=treble
V: 2 clef=treble
V: 3 clef=alto
V: 4 clef=bass
K: A
[V:1]!trill!c>d x4[I:setbarnb1]|
[V:2]z2 x4|
[V:3]z2 x4|
[V:4]z2 x4|
[V:1].e2 .e2 .e2 |
[V:2].C2 .C2 cA |
[V:3].E2 .E2 .E2 |
[V:4].A,,2 .A,,2 .A,,2 |
[V:1]ed' d'b bg |
[V:2].G2 .G2 .G2 |
[V:3].E2 .E2 .E2 |
[V:4].B,,2 .B,,2 .B,,2 |
[V:1]ec' c'b ba |
[V:2]A2 F2 .F2 |
[V:3].E2 .F2 .^D2 |
[V:4].C,2 .D,2 .^D,2 |
[V:1]ag f.e .f.g |
[V:2]B,6 |
[V:3]E6 |
[V:4]E,4 =D,2 |
[V:1].az .az .az |
[V:2].Ez .Ez .Ez |
[V:3].A,z .Az .Az |
[V:4].C,z .C,z .C,z |
[V:1].^az .az .az |
[V:2].=Gz .Gz .Gz |
[V:3].Ez .Ez .Ez |
[V:4].=C,z .C,z .C,z |
[V:1]b4 b/=a/g/f/ |
[V:2]G4 .^D2 |
[V:3]E4 .A,2 |
[V:4]B,,6 |
[V:1].e2 z2 |
[V:2].E2 z2 |
[V:3].G,2 z2 |
[V:4]E,2 E,,2 |
[V:1]!trill!G>A x4[I:setbarnb9] |
[V:2]z2 x4|
[V:3]z2 x4|
[V:4]z2 x4|
[V:1].B2 .B2 A/G/F/E/ |
[V:2].=D2 .D2 z2 |
[V:3].G,2 .G,2 z2 |
[V:4].E,2 .E,2 z2 |
[V:1].e2 .e2 d/c/B/A/ |
[V:2].C2 .C2 z2 |
[V:3].A,2 .A,2 z2 |
[V:4].E,2 .E,2 z2 |
[V:1].a2 .a2 g/f/e/^d/ |
[V:2].^D2 .D2 z2 |
[V:3].F2 .F2 z2 |
[V:4].E,2 .E,2 z2 |
[V:1]e4 e3/=d/ |
[V:2].G2 .G2 z2 |
[V:3].B,2 .B,2 z2 |
[V:4].E,2 .E,2 z2 |
[V:1]c2 c2 c2 |
[V:2]^A2 A2 A2 |
[V:3]=G2 G2 G2 |
[V:4]E2 E2 E2 |
[V:1]cd ^de ^ef |
[V:2]B2 z2 z2 |
[V:3]F2 z2 z2 |
[V:4]D4 z2 |
[V:1]fB B2 B2 |
[V:2]G2 G2 G2 |
[V:3]E2 E2 E2 |
[V:4]D2 D2 D2 |
[V:1]B=c ^c=d ^d=e |
[V:2]=A2 z2 E2 |
[V:3]E2 z2 A,2- |
[V:4]C4 C,2 |
[V:1]e=d dc cB |
[V:2]F6 |
[V:3]A,2 F,2 ^D,2 |
[V:4]D,4 ^D,2 |
[V:1]AG FE !trill!c3/d/ |
[V:2]B,4 z2 |
[V:3]E,4 z2 |
[V:4]E,4 z2 |
[V:1].e2 .e2 .e2 |
[V:2].C2 .C2 cA |
[V:3].E2 .E2 .E2 |
[V:4].A,,2 .A,,2 .A,,2 |
[V:1]ed' d'b bg |
[V:2].G2 .G2 .G2 |
[V:3].E2 .E2 .E2 |
[V:4].B,,2 .B,,2 .B,,2 |
[V:1]ec' c'b ba |
[V:2]A2 F2 .F2 |
[V:3].E2 .F2 .^D2 |
[V:4].C,2 .=D,2 .^D,2 |
[V:1]ag fe fg |
[V:2]B,6 |
[V:3]E6 |
[V:4]E,4 =D,2 |
[V:1].a2 .a2 !sfz!^a2 |
[V:2].A,2 .A2 !sfz!=G2 |
[V:3]E4 !sfz!E2 |
[V:4]C,4 !sfz!C,2 |
[V:1]b2 .b2 !sfz!^b2 |
[V:2]F2 B2 !sfz!A2- |
[V:3]F4 !sfz!F2 |
[V:4]D,4 !sfz!^D,2 |
[V:1]c'2- c'>e' d'3/=b/ |
[V:2]A2- A>c B3/G/ |
[V:3]E2 .E,2 .D2 |
[V:4]E,4 .E,,2 |
[V:1]a2 z2 |
[V:2]A2 z2 |
[V:3].C2 z2 |
[V:4].A,,2 z2 |
[V:1]z2 x4[I:setbarnb27] |
[V:2]CE x4|
[V:3]z2 x4|
[V:4]z2 x4|
[V:1]z6 |
[V:2].A2 .A2 EA |
[V:3].[E2C2] z2 z2 |
[V:4].A,,.C, .E,.A, .E,.C, |
[V:1].a.b .c'.a .e'.c' |
[V:2].c2 .c2 .c2 |
[V:3].[E2C2] .A2 .A2 |
[V:4].A,,2 z2 z2 |
[V:1].d'.b .a.g .f.e |
[V:2]!trill!B2 >A2 B2 |
[V:3]G6 |
[V:4]E,6 |
[V:1]ac' e'c' =g'e' |
[V:2]A2 z2 A2 |
[V:3].A.E .C.A, .E.C |
[V:4]A,4 C2 |
[V:1]f'd' ad' g'e' |
[V:2]A4 c/B/A/B/ |
[V:3]D2 z2 z2 |
[V:4]D2 >C2 D2 |
[V:1]a'e' a'e' b'e' |
[V:2]c2 z2 z2 |
[V:3].E.C .A,.C .B,.D |
[V:4]C2 z2 G,2 |
[V:1]c''c'' c''c'' c''c'' |
[V:2]e2 ^e2 f2- |
[V:3]C2 z2 z2 |
[V:4]A,6 |
[V:1]b'b' b'b' b'b' |
[V:2]f2 .^d2 .=e2 |
[V:3]z6 |
[V:4]G,6 |
[V:1]a'g' a'f' b'g' |
[V:2].a.g .a.f .b.g |
[V:3].A.G .A.F .B.G |
[V:4].A,.G, .A,.F, .B,.G, |
[V:1]e'2 z2 |
[V:2]e2 z2 |
[V:3]E2 z2 |
[V:4].E,2 E,,2 |
[V:1]z2 x4[I:setbarnb37] |
[V:2].e.^d x4|
[V:3].=G.F x4|
[V:4]z2 x4|
[V:1]z6 |
[V:2].e.c .=d.B .c.^A |
[V:3].=G.E .F.D .E.C |
[V:4]z2 z2 F,2 |
[V:1]z6 |
[V:2].B.d .f.b .d.c |
[V:3]D2 z2 .F,.E, |
[V:4]B,,2 z2 z2 |
[V:1]z6 |
[V:2].d.B .c.=A .B.G |
[V:3].F,.D .E,.C .D,.B, |
[V:4]z2 z2 E,,2 |
[V:1]z6 |
[V:2].A.c .e.a .e.c |
[V:3]C,2 z2 E2 |
[V:4]A,,4 C,2 |
[V:1]z6 |
[V:2].B.^A .B.d .F.B |
[V:3]F6 |
[V:4]D,4 ^D,2 |
[V:1]z6 |
[V:2]=AG FE .F.G |
[V:3]B,2 z2 z2 |
[V:4]E,2 z2 z2 |
[V:1]z6 |
[V:2]A2 A2 EA |
[V:3].[E2C2] z2 z2 |
[V:4].A,,.C, .E,.A, .E,.C, |
[V:1].a.b .c'.a .e'.c' |
[V:2].c2 .c2 .c2 |
[V:3].[E2C2] .A2 .A2 |
[V:4]A,,2 z2 z2 |
[V:1].d'.b .a.g .f.e |
[V:2]!trill!B2 >A2 B2 |
[V:3]G6 |
[V:4]E,6 |
[V:1]ac' e'c' =g'e' |
[V:2]A2 z2 A2 |
[V:3].A.E .C.A, .E.C |
[V:4]A,4 C2 |
[V:1]f'd' ad' g'e' |
[V:2]A4 c/B/A/B/ |
[V:3]D2 z2 z2 |
[V:4]D2 >C2 D2 |
[V:1]a'e' a'e' b'e' |
[V:2]c2 z2 dB |
[V:3].E.C .A,.C .B,.D |
[V:4]C4 G,2 |
[V:1]c''2 z2 z2 |
[V:2]c2 z2 z2 |
[V:3]C2 z2 z2 |
[V:4]A,2 z2 z2 |
[V:1]B,C DB, FD |
[V:2]z6 |
[V:3]F,4 z2 |
[V:4]D,,6 |
[V:1]CD EF GA |
[V:2]C4 z2 |
[V:3]A,4 z2 |
[V:4]E,,4 z2 |
[V:1]EF GA Bc |
[V:2]z6 |
[V:3]z6 |
[V:4]z6 |
[V:1]A,4 CB, |
[V:2]A,2 >A,2 G,2 |
[V:3]C,4 E,D, |
[V:4]E,,6 |
[V:1]A,2 z2 :|]
[V:2]A,2 z2 :|]
[V:3]C,2 z2 :|]
[V:4]A,,2 z2 :|]

